X: 1
T: Flowers of Edinburgh #2
R: reel
Z: 2005 John Chambers <jc@trillian.mit.edu>
M: C|
L: 1/8
K: G
D2 \
|:"G"G2G2 B2GB | d2B2 "(C)"g3e | "G"d2B2 BAGA | "(C)"B2G2 "D7"E2D2 |
| "G"G2G2 B2GB | d2B2 "(C)"g3e | "G"d2B2 BAGA | "G"B2G2 G4 :|
|:"Em"g4 "B7"f3e | "Em"B2e2 e3f | "Em"g2g2 "B7"fagf | "Em"B2e2 e4 |
| "G"dBGB d2d2 | "C"edef g2e2 | "G"d2B2 BAGA | "G"B2G2 G4 :|
